public/logo.svg

<svg width="107" height="27" viewBox="0 0 107 27" fill="none" xmlns="http://www.w3.org/2000/svg">
<g clip-path="url(#clip0_5_3)">
<path d="M104.039 1.57898H103.719V2.30698H104.072C104.458 2.30698 104.613 2.18498 104.613 1.94298C104.613 1.69998 104.381 1.57898 104.039 1.57898ZM104.183 2.69298H103.708V3.61898H103.201V1.16998H103.951C104.668 1.16998 105.109 1.30298 105.109 1.93198C105.109 2.42998 105.026 2.45698 104.838 2.51798C104.788 2.53398 104.732 2.55298 104.668 2.58198L105.23 3.61898H104.679L104.183 2.69298ZM104.105 4.36898C105.153 4.36898 105.947 3.61898 105.947 2.48298C105.947 1.34698 105.164 0.585979 104.105 0.585979C103.046 0.585979 102.263 1.34698 102.263 2.48298C102.263 3.61898 103.08 4.36898 104.105 4.36898ZM104.105 0.177979C105.374 0.177979 106.4 1.11498 106.4 2.49398C106.4 3.87298 105.374 4.78798 104.105 4.78798C102.837 4.78798 101.811 3.86198 101.811 2.49398C101.811 1.12598 102.837 0.177979 104.105 0.177979ZM7.325 17.683C4.578 17.683 2.615 15.853 2.615 12.576C2.615 9.29998 4.578 7.46898 7.325 7.46898C10.071 7.46898 12.035 9.29998 12.035 12.576C12.035 15.852 10.071 17.683 7.325 17.683ZM7.887 5.37298C5.637 5.37298 4.07 6.28898 3.177 8.04298C3.1 8.19698 3.044 8.25298 2.912 8.25298C2.78 8.25298 2.747 8.18598 2.747 8.09798V5.76998H0.387V17.683C0.387 19.293 0.927 20.353 1.533 21.136C1.765 21.433 2.008 21.709 2.273 21.963L3.353 23.011L3.614 23.237C4.034 23.601 4.205 23.75 4.699 24.047C4.76225 24.0718 4.81435 24.1188 4.84564 24.1791C4.87694 24.2395 4.8853 24.3091 4.86919 24.3751C4.85308 24.4411 4.81359 24.4991 4.75803 24.5382C4.70246 24.5774 4.6346 24.595 4.567 24.588C4.567 24.588 3.673 24.445 2.702 24.445H0V26.518H4.092C5.096 26.518 6.034 25.846 6.354 24.908C6.519 24.412 6.729 23.32 5.724 22.316L3.584 20.187C2.742 19.217 2.744 18.42 2.746 17.773V17.043C2.746 16.955 2.824 16.889 2.912 16.889C3.044 16.889 3.089 16.944 3.177 17.099C4.07 18.852 5.637 19.768 7.887 19.768C11.13 19.768 14.406 17.408 14.406 12.565C14.406 7.72298 11.13 5.36198 7.886 5.36198L7.887 5.37298ZM22.744 7.47998C25.491 7.47998 26.539 9.04598 26.539 11.274H18.32C18.662 8.81398 19.998 7.47998 22.744 7.47998ZM29.164 11.66C29.164 8.38398 27.068 5.37298 22.744 5.37298L22.734 5.36298C18.542 5.36298 15.795 8.10898 15.795 12.565C15.795 17.021 18.773 19.768 22.998 19.768C27.222 19.768 28.899 17.098 29.418 15.058H26.936C26.439 16.558 25.833 17.683 23.009 17.683C20.185 17.683 18.475 15.896 18.299 13.227H29.164V11.66ZM37.658 17.683C40.405 17.683 42.368 15.851 42.368 12.576C42.368 9.29898 40.405 7.46798 37.658 7.46798C34.912 7.46798 32.948 9.29898 32.948 12.575C32.948 15.852 34.912 17.683 37.658 17.683ZM37.107 5.37298C39.357 5.37298 40.923 6.28798 41.817 8.04198C41.894 8.19598 41.949 8.25198 42.082 8.25198C42.214 8.25198 42.236 8.19598 42.236 8.09698V0.529978H44.596V19.381H42.236V17.054C42.236 16.944 42.181 16.899 42.082 16.899C41.982 16.899 41.905 16.954 41.817 17.109C40.923 18.863 39.357 19.779 37.107 19.779C33.864 19.779 30.587 17.418 30.587 12.575C30.587 7.73298 33.864 5.37298 37.107 5.37298ZM53.21 7.47998C55.957 7.47998 57.005 9.04598 57.005 11.274H48.787C49.129 8.81398 50.464 7.47998 53.21 7.47998ZM59.63 11.66C59.63 8.38398 57.534 5.37298 53.21 5.37298L53.2 5.36298C49.008 5.36298 46.261 8.10898 46.261 12.565C46.261 17.021 49.239 19.768 53.464 19.768C57.689 19.768 59.365 17.098 59.884 15.058H57.402C56.906 16.558 56.299 17.683 53.475 17.683C50.651 17.683 48.942 15.896 48.765 13.227H59.63V11.66ZM75.515 2.10798H77.875V5.76998H81.405V7.86598H77.875V14.286C77.875 15.612 77.805 16.319 77.767 16.709C77.753 16.857 77.743 16.959 77.743 17.032C77.743 17.242 77.757 17.251 77.806 17.284C77.819 17.292 77.835 17.303 77.853 17.319C77.93 17.396 78.008 17.429 78.14 17.429C78.213 17.429 78.315 17.419 78.463 17.405C78.853 17.366 79.56 17.297 80.887 17.297H81.802V19.392H79.971C76.96 19.392 75.515 17.947 75.515 14.936V2.10798ZM92.932 13.358C92.932 16.238 91.233 17.683 88.608 17.683C86.512 17.683 85.332 16.503 85.332 15.323C85.332 14.142 86.126 13.381 87.957 13.359L92.932 13.249V13.359V13.358ZM92.932 11.296L87.957 11.406L87.946 11.396C84.538 11.473 82.971 12.697 82.971 15.322C82.971 17.948 85.872 19.779 88.211 19.779C90.549 19.779 91.851 18.731 92.513 17.341C92.601 17.186 92.678 17.164 92.777 17.164C92.877 17.164 92.932 17.208 92.932 17.319V19.392H95.292V10.877C95.292 7.47998 92.932 5.38398 89.27 5.38398C85.608 5.38398 83.512 7.46898 83.38 10.094H85.861C85.861 8.64898 86.655 7.46898 89.27 7.46898C91.884 7.46898 92.932 8.78098 92.932 10.745V11.296ZM99.969 0.529978H97.609V19.381H99.969V0.530979V0.529978ZM66.8 11.253L69.282 11.771H69.271C71.521 12.245 73.462 12.929 73.462 15.466C73.462 18.003 71.797 19.79 67.627 19.79C63.457 19.79 61.373 17.772 60.833 15.08H63.337C63.734 16.591 65.19 17.705 67.627 17.705C70.065 17.705 71.113 16.79 71.113 15.61C71.113 14.468 70.257 14.286 68.425 13.897L68.234 13.856L65.752 13.337C63.579 12.885 61.958 12.212 61.958 9.58698C61.958 6.96198 64.153 5.39498 67.583 5.39498C71.013 5.39498 73.473 7.22598 73.606 10.105H71.124C70.992 8.39498 69.503 7.47998 67.462 7.47998C65.422 7.47998 64.318 8.44998 64.318 9.51998C64.318 10.59 65.123 10.91 66.8 11.252V11.253Z" fill="black"/>
</g>
<defs>
<clipPath id="clip0_5_3">
<rect width="107" height="27" fill="white"/>
</clipPath>
</defs>
</svg>

<svg width="107" height="27" viewBox="0 0 107 27">
  <path d="M104.039 1.579h-.32v.728h.353c.386 0 .541-.122.541-.364 0-.243-.232-.364-.574-.364Zm.144 1.114h-.475v.926h-.507V1.17h.75c.717 0 1.158.133 1.158.762 0 .498-.083.525-.271.586-.05.016-.106.035-.17.064l.562 1.037h-.551l-.496-.926Zm-.078 1.676c1.048 0 1.842-.75 1.842-1.886s-.783-1.897-1.842-1.897c-1.059 0-1.842.761-1.842 1.897 0 1.136.817 1.886 1.842 1.886Zm0-4.191c1.269 0 2.295.937 2.295 2.316 0 1.379-1.026 2.294-2.295 2.294-1.268 0-2.294-.926-2.294-2.294 0-1.368 1.026-2.316 2.294-2.316ZM7.325 17.683c-2.747 0-4.71-1.83-4.71-5.107 0-3.276 1.963-5.107 4.71-5.107 2.746 0 4.71 1.831 4.71 5.107 0 3.276-1.964 5.107-4.71 5.107Zm.562-12.31c-2.25 0-3.817.916-4.71 2.67-.077.154-.133.21-.265.21s-.165-.067-.165-.155V5.77H.387v11.913c0 1.61.54 2.67 1.146 3.453.232.297.475.573.74.827l1.08 1.048.261.226c.42.364.591.513 1.085.81a.281.281 0 0 1-.132.541s-.894-.143-1.865-.143H0v2.073h4.092c1.004 0 1.942-.672 2.262-1.61.165-.496.375-1.588-.63-2.592l-2.14-2.129c-.842-.97-.84-1.767-.838-2.414v-.73c0-.088.078-.154.166-.154.132 0 .177.055.265.21.893 1.753 2.46 2.669 4.71 2.669 3.243 0 6.519-2.36 6.519-7.203 0-4.842-3.276-7.203-6.52-7.203v.011ZM22.744 7.48c2.747 0 3.795 1.566 3.795 3.794H18.32c.342-2.46 1.677-3.794 4.423-3.794Zm6.42 4.18c0-3.276-2.096-6.287-6.42-6.287l-.01-.01c-4.192 0-6.939 2.746-6.939 7.202 0 4.456 2.978 7.203 7.203 7.203 4.224 0 5.901-2.67 6.42-4.71h-2.482c-.497 1.5-1.103 2.625-3.927 2.625s-4.534-1.787-4.71-4.456h10.865V11.66Zm8.494 6.023c2.747 0 4.71-1.832 4.71-5.107 0-3.277-1.963-5.108-4.71-5.108-2.746 0-4.71 1.831-4.71 5.107 0 3.277 1.964 5.108 4.71 5.108Zm-.551-12.31c2.25 0 3.816.915 4.71 2.669.077.154.132.21.265.21.132 0 .154-.056.154-.155V.53h2.36v18.851h-2.36v-2.327c0-.11-.055-.155-.154-.155-.1 0-.177.055-.265.21-.894 1.754-2.46 2.67-4.71 2.67-3.243 0-6.52-2.361-6.52-7.204 0-4.842 3.277-7.202 6.52-7.202ZM53.21 7.48c2.747 0 3.795 1.566 3.795 3.794h-8.218c.342-2.46 1.677-3.794 4.423-3.794Zm6.42 4.18c0-3.276-2.096-6.287-6.42-6.287l-.01-.01c-4.192 0-6.939 2.746-6.939 7.202 0 4.456 2.978 7.203 7.203 7.203s5.901-2.67 6.42-4.71h-2.482c-.496 1.5-1.103 2.625-3.927 2.625s-4.533-1.787-4.71-4.456H59.63V11.66Zm15.885-9.552h2.36V5.77h3.53v2.096h-3.53v6.42c0 1.326-.07 2.033-.108 2.423-.014.148-.024.25-.024.323 0 .21.014.219.063.252.013.008.029.019.047.035.077.077.155.11.287.11.073 0 .175-.01.323-.024.39-.039 1.097-.108 2.424-.108h.915v2.095h-1.831c-3.011 0-4.456-1.445-4.456-4.456V2.108Zm17.417 11.25c0 2.88-1.699 4.325-4.324 4.325-2.096 0-3.276-1.18-3.276-2.36 0-1.181.794-1.942 2.625-1.964l4.975-.11v.11Zm0-2.062-4.975.11-.011-.01c-3.408.077-4.975 1.301-4.975 3.926 0 2.626 2.901 4.457 5.24 4.457 2.338 0 3.64-1.048 4.302-2.438.088-.155.165-.177.264-.177.1 0 .155.044.155.155v2.073h2.36v-8.515c0-3.397-2.36-5.493-6.022-5.493-3.662 0-5.758 2.085-5.89 4.71h2.481c0-1.445.794-2.625 3.409-2.625 2.614 0 3.662 1.312 3.662 3.276v.551ZM99.969.53h-2.36v18.851h2.36V.531ZM66.8 11.253l2.482.518h-.011c2.25.474 4.191 1.158 4.191 3.695s-1.665 4.324-5.835 4.324-6.254-2.018-6.794-4.71h2.504c.397 1.511 1.853 2.625 4.29 2.625 2.438 0 3.486-.915 3.486-2.095 0-1.142-.856-1.324-2.688-1.713l-.191-.041-2.482-.519c-2.173-.452-3.794-1.125-3.794-3.75s2.195-4.192 5.625-4.192 5.89 1.831 6.023 4.71h-2.482c-.132-1.71-1.621-2.625-3.662-2.625-2.04 0-3.144.97-3.144 2.04s.805 1.39 2.482 1.732Z" fill="currentColor"></path>
</svg>
